X: 421
T: Middleton's Moothie
C: Bert Murray
R: jig
B: Bert Murray's "Bon Accord Collection" 1999 p.42
%
N: Written for Arthur Middleton
Z: 2011 John Chambers <jc:trillian.mit.edu>
M: 6/8
L: 1/8
K: G
uB |\
d3   d>cB | d>cB (G2D) | G,>B,D G>Bd | d>cB (c2A) |\
c3   c>BA | c>BA (F2E) | D>FA   A>Bc | e>dc (B2c) |
d>gd d>cB | d>cB (G2D) | G,>B,D G>Bd | g>fg (e2d) |\
c>ec A>cA | F>AF (D2d) | f>ed   c>BA | G3    G2   ||
uA |\
B>dB B>dB | G>BG (D2B,) | G,>B,D G>Bd | d>cB (c2B) |\
A>cA A>cA | F>AF (D2d)  | f>ed   f>ed | e>dc (B2d) |
B>dB B>dB | G>BG (D2B,) | G,>B,D G>Bd | g>fg  e2d |\
c2e  A>Bc | A2F   D2d   | f>ed   c>BA | G3    G2  |]
